X: 1
T: the 28th of January
R: reel
S: Fiddle Hell Online 2022-3-26 handout for Fiddle Hell jam session
B: the Portland Collection 1 p.214
Z: 2022 John Chambers <jc:trillian.mit.edu>
M: C|
L: 1/8
K: Am
"^A"\
|:   "Am"A,A,CE "D"DDFD | "Am"A,A,CE "D"D2EG  |\
[1,3 "Am"ABcB      AGEG |     ABcB      AGED :|\
[2,4 "Am"A2ea   "G"geBA | "Em"EGA2  "Am"A4   :|
"^B"\
|:  "Am"ea-a2 abag |     egab     a2ag  |\
[1,3 "G"efga  bagf |     efga     bagf :|\
[2,4 "G"efge  dBAG | "Em"EGA2 "Am"A4   :|
